static/images/mobile/copyright/wikipedia-wordmark-el.svg

<?xml version="1.0" encoding="UTF-8"?>
<svg width="120px" height="18px" viewBox="0 0 120 18" version="1.1" xmlns="http://www.w3.org/2000/svg" xmlns:xlink="http://www.w3.org/1999/xlink">
    <title>wikipedia-wordmark-el</title>
    <g id="Page-1" stroke="none" stroke-width="1" fill="none" fill-rule="evenodd">
        <path d="M111.516838,0 C111.848498,0 112.000366,0.229910474 112.167712,0.649231308 L117.543683,14.8644838 C118.024984,16.2015366 118.87496,16.2015366 119.883766,16.292021 C120.038745,16.4479624 120.038745,16.9937571 119.883766,17.1506611 L118.732079,17.1207974 C118.152509,17.1074211 117.560047,17.097718 116.921843,17.097718 L116.09748,17.1022001 C115.222792,17.1107733 114.238593,17.1304465 113.518086,17.1506611 C113.363107,16.9947197 113.363107,16.448925 113.518086,16.292021 L113.789543,16.2746207 C114.90506,16.2102211 115.798701,16.2185068 115.4404,15.2273844 L113.855959,10.8359989 L108.45288,10.8359989 C107.829114,10.8359989 107.67221,10.9380346 107.543222,11.2768701 L106.114722,15.0444902 C105.706579,16.1120147 106.92812,16.2236764 107.90516,16.292021 C108.061101,16.4479624 108.061101,16.9937571 107.90516,17.1506611 L106.711657,17.1224881 C106.286309,17.1139431 105.843517,17.1067349 105.413482,17.1023355 L104.579373,17.097718 C103.565755,17.097718 103.229807,17.1237083 102.267206,17.1506611 C102.112227,16.9947197 102.112227,16.448925 102.267206,16.292021 L102.543057,16.2700155 C103.528822,16.1772242 104.237891,15.9194945 104.865266,14.4476776 L110.642797,0.927947314 C110.939278,0.231024227 111.136611,0 111.516838,0 Z M0.116956015,0.285892481 L2.18020278,0.328025074 C2.57143803,0.334082691 2.98177676,0.337872933 3.46873252,0.337872933 C4.58534961,0.337872933 5.80689022,0.286855082 6.71654811,0.286855082 C11.5497675,0.286855082 12.3025214,2.54704211 12.3025214,4.28646202 C12.3025214,5.69859761 11.1358491,7.03179992 9.83441258,7.69118157 L9.83441258,7.74316202 C12.0945996,8.39291766 13.8359447,9.82141747 13.8359447,12.3164791 C13.8359447,14.5497133 12.4584628,17.1496985 7.28833308,17.1496985 L5.87729545,17.1414261 C4.93548819,17.1290176 4.49086808,17.1062686 3.88376205,17.0990303 L3.49472274,17.0967554 C2.17018384,17.0967554 1.38951447,17.1227457 0.116956015,17.1496985 C-0.0389853384,16.9937571 -0.0389853384,16.4479624 0.116956015,16.2910584 L0.593089207,16.2661318 C2.01523235,16.1709129 2.37810564,15.8809904 2.37810564,13.9269105 L2.37810564,3.50771785 L2.37269947,3.12668886 C2.31749562,1.33545089 1.82256457,1.21666744 0.116956015,1.14356993 C-0.0389853384,0.988591173 -0.0389853384,0.441833835 0.116956015,0.285892481 Z M53.282369,5.16242888 C53.3921055,5.27120279 53.3921055,5.66009357 53.282369,5.76983008 L53.0052867,5.78417489 C52.006425,5.84636693 51.7222502,6.0196385 51.7003031,7.27820977 L51.6988904,14.8481196 C51.6988904,16.3796177 52.0078853,16.4720274 53.282369,16.5268957 C53.3921055,16.6366322 53.3921055,17.025523 53.282369,17.1352595 L51.9568646,17.1070157 C51.6421362,17.1018631 51.3144001,17.0986806 50.9162958,17.0986806 L50.2121603,17.1030699 C49.6735387,17.1099175 49.2182678,17.1235707 48.5685121,17.1352595 C48.4597382,17.025523 48.4597382,16.6366322 48.5685121,16.5268957 L48.8457837,16.5127401 C49.8887051,16.448475 50.1519907,16.2618102 50.1519907,14.8481196 L50.1519907,7.30229079 C50.1519907,6.15872086 49.7515487,5.93732265 49.3145279,5.93732265 L45.7288393,5.93732265 C45.2918185,5.93732265 44.8913765,6.15775826 44.8913765,7.30229079 L44.8913765,14.8481196 C44.8913765,16.3796177 45.2003714,16.4720274 46.4748551,16.5268957 C46.583629,16.6366322 46.583629,17.025523 46.4748551,17.1352595 L45.1466005,17.1070157 C44.8367636,17.1018631 44.5169247,17.0986806 44.1270713,17.0986806 L43.4082807,17.1030699 C42.8589526,17.1099175 42.3983776,17.1235707 41.7609982,17.1352595 C41.6522243,17.025523 41.6522243,16.6366322 41.7609982,16.5268957 L42.0382698,16.5127401 C43.0811912,16.448475 43.3444768,16.2618102 43.3444768,14.8481196 L43.3444768,7.44860613 C43.3444768,5.91710803 43.0354819,5.82469833 41.7609982,5.76983008 C41.6522243,5.66009357 41.6522243,5.27120279 41.7609982,5.16242888 L43.7037894,5.19517116 C43.8162714,5.19643013 43.9167319,5.19731386 44.0018123,5.19774499 L51.2441182,5.19634701 C51.7687068,5.19142624 52.5381034,5.17660537 53.282369,5.16242888 Z M33.5403861,5.16050368 C33.6568608,5.27024019 33.6568608,5.65913097 33.5403861,5.76983008 L33.0938378,5.82208338 C32.4376967,5.90670742 31.7349679,6.06889816 31.0068204,6.8017383 L28.0513563,9.82289289 C27.6197614,10.2733308 27.5568586,10.3813945 27.5568586,10.4923503 C27.5568586,10.6142798 27.5976355,10.7248452 27.7126128,10.8652691 L32.0599059,15.7491141 C32.7144745,16.5163071 33.4258366,16.4768404 33.7752608,16.5249705 C33.8926981,16.634707 33.8926981,17.0235978 33.7752608,17.1333343 L32.3941036,17.1010178 C32.2208239,17.0983148 32.0348782,17.0967554 31.8067418,17.0967554 L31.4109624,17.1001697 C31.0527846,17.1066221 30.7928824,17.1210611 30.5004923,17.1333343 C30.4381158,17.1333343 30.4133192,17.0969865 30.4058956,17.0553405 L30.399966,16.8047485 C30.3870594,16.4927426 30.3237588,16.1081643 30.0134163,15.7500767 L26.8358705,12.0989313 C26.4460171,11.6234064 25.9319882,11.4164472 25.276457,11.3981578 L25.276457,14.8461944 C25.2745318,16.3776925 25.6066291,16.4710648 26.9715973,16.5259331 C27.088072,16.634707 27.088072,17.0245604 26.9715973,17.1342969 L25.5488225,17.1063562 C25.2171293,17.1010773 24.8747774,17.097718 24.4572836,17.097718 L23.7761983,17.1009969 C23.1476048,17.1072237 22.639893,17.1213018 21.9237179,17.1342969 C21.8062806,17.0245604 21.8062806,16.634707 21.9237179,16.5259331 L22.3411275,16.5038236 C23.3574229,16.4312417 23.6198208,16.2084887 23.6198208,14.847157 L23.6198208,7.44860613 L23.6140844,7.13119421 C23.5650911,5.90266637 23.1875773,5.81974272 21.9237179,5.76983008 C21.8062806,5.65913097 21.8062806,5.27024019 21.9237179,5.16050368 L23.3464926,5.18933119 C23.5676214,5.19290096 23.7934874,5.19558389 24.0431968,5.19697587 L24.4380316,5.19804512 C25.4323983,5.19804512 26.0166971,5.1778305 26.9715973,5.16050368 C27.088072,5.27024019 27.088072,5.65913097 26.9715973,5.76983008 L26.5541876,5.79165432 C25.5802379,5.86057426 25.2986697,6.0681102 25.2768966,7.28419528 L25.2754944,10.6887209 C25.9570159,10.6328901 26.3651587,10.3623992 26.7569372,9.97543362 L30.0317057,6.72858062 C30.969279,5.74480246 30.1895722,5.83143654 29.4859109,5.76983008 C29.3684736,5.65913097 29.3684736,5.27024019 29.4859109,5.16050368 L31.1763629,5.19525419 L31.1763629,5.19525419 L32.0600953,5.19617922 C32.5498936,5.19078981 32.7906075,5.17468017 33.5403861,5.16050368 Z M101.129412,5.16050368 C101.246849,5.27024019 101.246849,5.65913097 101.129412,5.76983008 L100.712256,5.79165432 C99.7387918,5.86057426 99.4565453,6.0681102 99.4347148,7.28419528 L99.4333088,14.847157 C99.4333088,16.3776925 99.7663687,16.4710648 101.129412,16.5259331 C101.246849,16.634707 101.246849,17.0245604 101.129412,17.1342969 L99.7071197,17.1063562 C99.3754349,17.1010773 99.0331418,17.097718 98.6160606,17.097718 L97.935231,17.1009969 C97.3065022,17.1072237 96.7977074,17.1213018 96.0815323,17.1342969 C95.9650576,17.0245604 95.9650576,16.634707 96.0815323,16.5259331 L96.4992285,16.5038236 C97.5161999,16.4312417 97.7785978,16.2084887 97.7785978,14.847157 L97.7785978,7.44860613 L97.7728463,7.13119421 C97.7237308,5.90266637 97.3453917,5.81974272 96.0815323,5.76983008 C95.9650576,5.65913097 95.9650576,5.27024019 96.0815323,5.16050368 L97.5050142,5.18933119 C97.7261037,5.19290096 97.9518519,5.19558389 98.2013648,5.19697587 L98.595846,5.19804512 C99.5892502,5.19804512 100.174512,5.1778305 101.129412,5.16050368 Z M60.4826241,4.95739488 C60.7550401,4.95739488 60.8657392,5.15472808 61.0082042,5.51089043 L65.0039607,15.5103891 C65.3630109,16.4595136 66.0002527,16.4595136 66.7578196,16.5259331 C66.8733317,16.634707 66.8733317,17.0245604 66.7578196,17.1342969 L65.4545658,17.1053264 C65.1584389,17.1006443 64.85418,17.097718 64.5342114,17.097718 L63.8216959,17.1019389 C63.1902241,17.108562 62.4966603,17.1219206 61.9823563,17.1342969 C61.8658816,17.0245604 61.8658816,16.634707 61.9823563,16.5259331 L62.6937777,16.4841326 C63.2668081,16.4380898 63.6347921,16.3223867 63.4233699,15.7693287 L62.2345578,12.6514643 L58.1820078,12.6514643 C57.7141837,12.6514643 57.597709,12.7255845 57.5004863,12.9652722 L56.4281489,15.6403402 C56.1230044,16.3979071 57.0384379,16.4768404 57.7729024,16.5259331 C57.8893771,16.634707 57.8893771,17.0245604 57.7729024,17.1342969 L56.5542496,17.1091489 C56.2651484,17.1045766 55.9717691,17.1010203 55.6899409,17.0991575 L55.2778407,17.097718 C54.517386,17.097718 54.2642219,17.1169701 53.5432338,17.1342969 C53.4257965,17.0245604 53.4257965,16.634707 53.5432338,16.5259331 C54.3912853,16.4691396 54.9775092,16.3545901 55.4925007,15.2158332 L59.8251676,5.61677653 C60.0475284,5.12103704 60.195769,4.95739488 60.4826241,4.95739488 Z M20.3229125,5.16050368 C20.4403498,5.27024019 20.4403498,5.65913097 20.3229125,5.76983008 L19.9055359,5.79165432 C18.9317482,5.86057426 18.6508852,6.0681102 18.6291706,7.28419528 L18.6277722,14.847157 C18.6287348,16.3776925 18.958907,16.4710648 20.3229125,16.5259331 C20.4403498,16.634707 20.4403498,17.0245604 20.3229125,17.1342969 L18.9004409,17.1063562 C18.5686214,17.1010773 18.2260926,17.097718 17.8085988,17.097718 L17.1275135,17.1009969 C16.4989201,17.1072237 15.9912082,17.1213018 15.2750331,17.1342969 C15.1575958,17.0245604 15.1575958,16.634707 15.2750331,16.5259331 L15.6924428,16.5038236 C16.7087381,16.4312417 16.971136,16.2084887 16.971136,14.847157 L16.971136,7.44860613 L16.9653996,7.13119421 C16.9164064,5.90266637 16.5388925,5.81974272 15.2750331,5.76983008 C15.1575958,5.65913097 15.1575958,5.27024019 15.2750331,5.16050368 L16.6975048,5.18933119 C16.9187178,5.19290096 17.1446904,5.19558389 17.3944615,5.19697587 L17.7893468,5.19804512 C18.7837136,5.19804512 19.3680124,5.1778305 20.3229125,5.16050368 Z M71.981855,5.16050368 C72.0983297,5.27024019 72.0983297,5.65913097 71.981855,5.76983008 L71.5641918,5.79165432 C70.5897562,5.86057426 70.3088663,6.0681102 70.2871505,7.28419528 L70.2857521,14.847157 C70.2867147,16.3776925 70.6168868,16.4710648 71.981855,16.5259331 C72.0983297,16.634707 72.0983297,17.0245604 71.981855,17.1342969 L70.558373,17.1063562 C70.2267388,17.1010773 69.8846225,17.097718 69.4675413,17.097718 L68.7861552,17.1009969 C68.1570203,17.1072237 67.6482255,17.1213018 66.9320504,17.1342969 C66.8165383,17.0245604 66.8165383,16.634707 66.9320504,16.5259331 L67.3500001,16.5038236 C68.3674786,16.4312417 68.6291159,16.2084887 68.6291159,14.847157 L68.6291159,7.44860613 L68.6233791,7.13119421 C68.574381,5.90266637 68.1968011,5.81974272 66.9320504,5.76983008 C66.8165383,5.65913097 66.8165383,5.27024019 66.9320504,5.16050368 L68.3557119,5.18933119 C68.5768913,5.19290096 68.8027741,5.19558389 69.0524891,5.19697587 L69.4473267,5.19804512 C70.4407309,5.19804512 71.0269548,5.1778305 71.981855,5.16050368 Z M40.4971032,5.16050368 C40.6145405,5.27024019 40.6145405,5.65913097 40.4971032,5.76983008 L40.0797265,5.79165432 C39.1059388,5.86057426 38.8250759,6.0681102 38.8033612,7.28419528 L38.8019629,14.847157 C38.8029255,16.3776925 39.1330976,16.4710648 40.4971032,16.5259331 C40.6145405,16.634707 40.6145405,17.0245604 40.4971032,17.1342969 L39.0746315,17.1063562 C38.7428121,17.1010773 38.4002833,17.097718 37.9827895,17.097718 L37.3017042,17.1009969 C36.6731107,17.1072237 36.1653989,17.1213018 35.4492238,17.1342969 C35.3317865,17.0245604 35.3317865,16.634707 35.4492238,16.5259331 L35.8666335,16.5038236 C36.8829288,16.4312417 37.1453267,16.2084887 37.1453267,14.847157 L37.1453267,7.44860613 L37.1395903,7.13119421 C37.0905971,5.90266637 36.7130832,5.81974272 35.4492238,5.76983008 C35.3317865,5.65913097 35.3317865,5.27024019 35.4492238,5.16050368 L36.8716954,5.18933119 C37.0929084,5.19290096 37.3188811,5.19558389 37.5686522,5.19697587 L37.9635375,5.19804512 C38.9579043,5.19804512 39.542203,5.1778305 40.4971032,5.16050368 Z M93.6423015,5.12199964 C93.6870624,5.12199964 93.707999,5.1328289 93.7156697,5.15367523 L93.818539,5.72005958 C93.9246209,6.34247898 94.0830714,7.3349179 94.1495922,7.85193593 C93.9580346,7.93857002 93.747225,7.97803666 93.5046496,7.94530822 L93.3401673,7.47507105 C92.9753774,6.492707 92.5738144,5.93443484 91.3031812,5.93443484 L89.255729,5.93443484 C88.7898301,5.93443484 88.5539929,6.30311101 88.5539929,6.74590744 L88.5539929,10.4355569 L90.3280664,10.4355569 C91.9875905,10.4374821 92.0453465,10.1977944 92.1050278,9.18225044 C92.2215025,9.07251393 92.6315705,9.07251393 92.7480452,9.18225044 L92.7207314,9.94799949 C92.7158382,10.1138877 92.712068,10.2838403 92.7100982,10.4716901 L92.7085786,10.7686168 C92.7085786,11.39527 92.7287932,11.7466194 92.7480452,12.3934872 C92.6315705,12.5022611 92.2215025,12.5022611 92.1050278,12.3934872 L92.0899386,12.2019045 C92.0260144,11.4974105 91.8559452,11.137293 90.3309542,11.137293 L88.5568807,11.137293 L88.5568807,15.5835467 C88.5568807,16.082174 88.8292968,16.3767299 89.2586168,16.3767299 L91.9096198,16.3767299 C93.3910627,16.3767299 94.0735467,15.2880283 94.4624375,13.9596389 C94.7184894,13.8999577 94.9418128,13.9394243 95.1449216,14.0520486 C94.9889802,14.9934724 94.6963495,16.2102 94.4239335,17.1323717 L92.5476471,17.099597 C92.3280817,17.097256 92.1160014,17.0957928 91.9288718,17.0957928 L87.402464,17.1001821 C86.8865323,17.1070297 85.8862131,17.1206829 85.2041416,17.1323717 C85.0867043,17.0226352 85.0867043,16.6337444 85.2041416,16.5230453 L85.4905372,16.5096798 C86.6153872,16.4467278 86.8992819,16.2632856 86.8992819,14.8452318 L86.8992819,7.44571833 L86.8935459,7.12850447 C86.8445575,5.90073589 86.4671097,5.81774622 85.2041416,5.76694228 C85.0867043,5.65720577 85.0867043,5.26831499 85.2041416,5.15954108 L87.7174927,5.19515732 L87.7174927,5.19515732 L92.688364,5.19515732 C93.1552254,5.19515732 93.3111668,5.1759053 93.6423015,5.12199964 Z M79.4747407,4.95739488 L84.2290268,16.7290419 L84.2900317,16.9060401 C84.3021845,16.9451458 84.3069975,16.9682482 84.3069975,16.9870189 C84.3069975,17.0611392 84.2290268,17.097718 83.8978921,17.097718 L73.6067254,17.097718 L73.4354426,17.0929953 C73.2843744,17.0824367 73.1966574,17.0510319 73.1966574,16.9687295 C73.1966574,16.9128987 73.216872,16.9128987 73.2948427,16.7290419 L78.2647514,4.95739488 L79.4747407,4.95739488 Z M78.4977008,6.82291552 L78.4591967,6.82291552 L74.5029069,16.4710648 L82.3577306,16.4710648 L78.4977008,6.82291552 Z M6.37771258,8.47088834 L4.58534961,8.47088834 L4.58534961,14.5497133 C4.58534961,15.4083534 4.92322255,16.292021 6.74157574,16.292021 C10.6911274,16.292021 11.4188537,14.7075799 11.4188537,12.8102934 C11.4188537,10.4721357 9.93741088,8.47088834 6.37771258,8.47088834 Z M60.0330894,6.95094144 L59.9936228,6.95094144 L58.0405054,11.6301447 C57.9661226,11.8112886 58.0755091,11.8667376 58.4207364,11.8753222 L61.9236377,11.8765705 L60.0330894,6.95094144 Z M110.920989,2.80694436 L110.867083,2.80694436 L108.26421,9.39883565 C108.155436,9.67991513 108.342181,9.74440939 108.918779,9.74440939 L113.440115,9.74440939 L110.920989,2.80694436 Z M6.97988032,1.17269848 L6.84649924,1.17052275 C4.66165178,1.17052275 4.58882353,1.41428647 4.58639593,2.20440473 L4.58631222,7.58818327 L6.50862631,7.58818327 C8.66485243,7.58818327 10.1982757,6.8075139 10.1982757,4.60026993 C10.1982757,2.02960034 8.4142341,1.21943861 6.97988032,1.17269848 Z" id="wikipedia-wordmark-el" fill="#000000" fill-rule="nonzero"></path>
    </g>
</svg>

<svg xmlns="http://www.w3.org/2000/svg" width="120" height="18"><path fill="#000" fill-rule="nonzero" d="M111.517 0c.331 0 .483.23.65.65l5.377 14.214c.481 1.338 1.331 1.338 2.34 1.428.155.156.155.702 0 .859l-1.152-.03a77.315 77.315 0 0 0-1.81-.023l-.825.004c-.874.009-1.858.028-2.579.049-.155-.156-.155-.702 0-.859l.272-.017c1.115-.065 2.009-.056 1.65-1.048l-1.584-4.391h-5.403c-.624 0-.78.102-.91.44l-1.428 3.768c-.408 1.068.813 1.18 1.79 1.248.156.156.156.702 0 .859l-1.193-.029c-.426-.008-.868-.015-1.299-.02l-.834-.004c-1.013 0-1.35.026-2.312.053-.155-.156-.155-.702 0-.859l.276-.022c.986-.093 1.695-.35 2.322-1.822l5.778-13.52c.296-.697.494-.928.874-.928ZM.117.286 2.18.328c.391.006.802.01 1.289.01 1.116 0 2.338-.051 3.248-.051 4.833 0 5.586 2.26 5.586 4 0 1.412-1.167 2.745-2.469 3.404v.052c2.26.65 4.002 2.078 4.002 4.573 0 2.234-1.378 4.834-6.548 4.834l-1.41-.009c-.943-.012-1.387-.035-1.994-.042l-.39-.002c-1.324 0-2.104.026-3.377.053-.156-.156-.156-.702 0-.859l.476-.025c1.422-.095 1.785-.385 1.785-2.34V3.509l-.005-.381c-.056-1.792-.55-1.91-2.256-1.983-.156-.155-.156-.702 0-.858Zm53.165 4.876c.11.11.11.498 0 .608l-.277.014c-.999.062-1.283.236-1.305 1.494l-.001 7.57c0 1.532.309 1.624 1.583 1.679.11.11.11.499 0 .608l-1.325-.028a61.794 61.794 0 0 0-1.04-.008l-.705.004c-.538.007-.994.02-1.643.032-.11-.11-.11-.498 0-.608l.277-.014c1.043-.065 1.306-.251 1.306-1.665V7.302c0-1.143-.4-1.365-.837-1.365h-3.586c-.437 0-.838.22-.838 1.365v7.546c0 1.532.31 1.624 1.584 1.679.109.11.109.499 0 .608l-1.328-.028c-.31-.005-.63-.008-1.02-.008l-.719.004c-.549.007-1.01.02-1.647.032-.109-.11-.109-.498 0-.608l.277-.014c1.043-.065 1.306-.251 1.306-1.665v-7.4c0-1.53-.309-1.623-1.583-1.678-.109-.11-.109-.499 0-.608l1.943.033.298.003 7.242-.002c.525-.005 1.294-.02 2.038-.034ZM33.54 5.161c.117.11.117.498 0 .609l-.446.052c-.656.085-1.359.247-2.087.98l-2.956 3.02c-.431.451-.494.56-.494.67 0 .122.04.233.156.373l4.347 4.884c.654.767 1.366.728 1.715.776.118.11.118.499 0 .608l-1.38-.032c-.174-.003-.36-.004-.588-.004l-.396.003c-.358.007-.618.021-.91.033-.063 0-.088-.036-.095-.078l-.006-.25c-.013-.312-.076-.697-.387-1.055L26.836 12.1c-.39-.476-.904-.683-1.56-.7v3.447c-.001 1.532.33 1.625 1.696 1.68.116.109.116.499 0 .608l-1.423-.028a66.436 66.436 0 0 0-1.092-.008l-.68.003c-.63.006-1.137.02-1.853.033-.118-.11-.118-.5 0-.608l.417-.022c1.016-.073 1.279-.296 1.279-1.657V7.45l-.006-.318c-.049-1.228-.426-1.311-1.69-1.361-.118-.11-.118-.5 0-.61l1.422.03c.222.003.447.006.697.007l.395.001c.994 0 1.579-.02 2.534-.037.116.11.116.498 0 .609l-.418.022c-.974.069-1.255.276-1.277 1.492l-.002 3.405c.682-.056 1.09-.327 1.482-.714l3.275-3.246c.937-.984.158-.898-.546-.96-.118-.11-.118-.499 0-.608l1.69.034.884.001c.49-.005.73-.021 1.48-.035Zm67.59 0c.117.11.117.498 0 .609l-.418.022c-.973.069-1.255.276-1.277 1.492l-.002 7.563c0 1.53.333 1.624 1.696 1.679.118.109.118.499 0 .608l-1.422-.028a66.412 66.412 0 0 0-1.09-.008l-.682.003c-.628.006-1.137.02-1.853.033-.117-.11-.117-.5 0-.608l.417-.022c1.017-.073 1.28-.296 1.28-1.657V7.45l-.006-.318c-.05-1.228-.428-1.311-1.691-1.361-.117-.11-.117-.5 0-.61l1.423.03c.221.003.447.006.696.007l.395.001c.993 0 1.579-.02 2.533-.037Zm-40.647-.204c.272 0 .383.198.525.554l3.996 10c.359.949.996.949 1.754 1.015.115.109.115.499 0 .608l-1.303-.029c-.297-.004-.6-.007-.92-.007l-.713.004c-.632.007-1.325.02-1.84.032-.116-.11-.116-.5 0-.608l.712-.042c.573-.046.94-.162.73-.715l-1.19-3.118h-4.052c-.468 0-.584.075-.682.314l-1.072 2.675c-.305.758.61.837 1.345.886.116.109.116.499 0 .608l-1.219-.025c-.289-.004-.582-.008-.864-.01l-.412-.001c-.76 0-1.014.019-1.735.036-.117-.11-.117-.5 0-.608.848-.057 1.435-.171 1.95-1.31l4.332-9.6c.223-.495.37-.659.658-.659Zm-40.16.204c.117.11.117.498 0 .609l-.417.022c-.974.069-1.255.276-1.277 1.492l-.001 7.563c0 1.53.33 1.624 1.695 1.679.117.109.117.499 0 .608l-1.423-.028a66.487 66.487 0 0 0-1.091-.008l-.681.003c-.63.006-1.137.02-1.853.033-.117-.11-.117-.5 0-.608l.417-.022c1.017-.073 1.28-.296 1.28-1.657V7.45l-.007-.318c-.049-1.228-.426-1.311-1.69-1.361-.117-.11-.117-.5 0-.61l1.423.03c.22.003.447.006.696.007l.395.001c.995 0 1.579-.02 2.534-.037Zm51.659 0c.116.11.116.498 0 .609l-.418.022c-.974.069-1.255.276-1.277 1.492l-.001 7.563c0 1.53.33 1.624 1.696 1.679.116.109.116.499 0 .608l-1.424-.028a66.378 66.378 0 0 0-1.09-.008l-.682.003c-.629.006-1.138.02-1.854.033-.115-.11-.115-.5 0-.608l.418-.022c1.017-.073 1.28-.296 1.28-1.657V7.45l-.007-.318c-.049-1.228-.426-1.311-1.69-1.361-.116-.11-.116-.5 0-.61l1.423.03c.22.003.447.006.696.007l.395.001c.994 0 1.58-.02 2.535-.037Zm-31.485 0c.118.11.118.498 0 .609l-.417.022c-.974.069-1.255.276-1.277 1.492l-.001 7.563c0 1.53.331 1.624 1.695 1.679.118.109.118.499 0 .608l-1.422-.028a66.487 66.487 0 0 0-1.092-.008l-.681.003c-.629.006-1.137.02-1.853.033-.117-.11-.117-.5 0-.608l.418-.022c1.016-.073 1.278-.296 1.278-1.657V7.45l-.005-.318c-.05-1.228-.427-1.311-1.69-1.361-.118-.11-.118-.5 0-.61l1.422.03c.22.003.447.006.697.007l.395.001c.994 0 1.578-.02 2.533-.037Zm53.145-.039c.045 0 .066.01.074.032l.103.566a67.6 67.6 0 0 1 .33 2.132 1.15 1.15 0 0 1-.644.093l-.165-.47c-.365-.982-.766-1.54-2.037-1.54h-2.047c-.466 0-.702.368-.702.81v3.69h1.774c1.66.002 1.717-.237 1.777-1.253.117-.11.527-.11.643 0l-.027.766c-.005.166-.009.336-.01.524l-.002.297c0 .626.02.978.039 1.624-.116.11-.526.11-.643 0l-.015-.191c-.064-.705-.234-1.065-1.759-1.065h-1.774v4.447c0 .498.272.793.702.793h2.65c1.482 0 2.165-1.089 2.553-2.417.256-.06.48-.02.683.092a28.342 28.342 0 0 1-.721 3.08l-1.876-.032c-.22-.003-.432-.004-.62-.004l-4.526.004c-.515.007-1.516.02-2.198.032-.117-.11-.117-.498 0-.609l.287-.013c1.124-.063 1.408-.247 1.408-1.665v-7.4l-.005-.316c-.05-1.228-.427-1.311-1.69-1.362-.117-.11-.117-.499 0-.607l2.513.035h4.971c.467 0 .623-.02.954-.073Zm-14.167-.165 4.754 11.772.061.177c.012.04.017.062.017.081 0 .074-.078.11-.41.11h-10.29l-.172-.004c-.15-.01-.238-.042-.238-.124 0-.056.02-.056.098-.24l4.97-11.772h1.21Zm-.977 1.866h-.039l-3.956 9.648h7.855l-3.86-9.648ZM6.378 8.47H4.585v6.079c0 .858.338 1.742 2.157 1.742 3.95 0 4.677-1.584 4.677-3.482 0-2.338-1.482-4.34-5.041-4.34Zm53.655-1.52h-.04l-1.952 4.68c-.075.18.035.236.38.244l3.503.002-1.89-4.926Zm50.888-4.144h-.054l-2.603 6.592c-.109.28.078.345.655.345h4.521l-2.519-6.937ZM6.98 1.173l-.134-.002c-2.184 0-2.257.243-2.26 1.033v5.384H6.51c2.156 0 3.69-.78 3.69-2.988 0-2.57-1.785-3.38-3.22-3.427Z"/></svg>
